!!!OTL: Christus iam surrexit
**kern
*staff1
=1-
*clefF4
*k[]
*met(c|)
*M2/2
1D
1F
1A
1G
=2
!LO:TX:Y=119:t=P
1D
1A
0D
=3
!!linebreak:original
1F
1G
2A\
2F\
1G
=4
2F\
2D\
1E
1F
1F
!!linebreak:original
=5
0G
2.F\
4E\
2F\
2D\
=6
2G\
2C/
1D
0C
0G
!!linebreak:original
=7
1D
1E
=8
1A
1G
1D
1A
=9
!!linebreak:original
1.D
2D\
1.F
2F\
=10
1.D
2D\
1.C
2C/
=11
!LO:TX:Y=-360:t=P
1.G
2G\
0C
!!pagebreak:original
=12
2.D\
4E\
1F
1G
2.F\
4E\
=13
1D
2C/
2.D\
4C/
2D\
1AA
=14
0D
==
*-
!!title: @{OTL}, @{GTL}, ed. @{ENC}
!!!pag:
!!!GTL: Hymnbook D
!!!EFL: 
!!!YEM: Creative Commons CC/BY/NC/SA 4.0
!!!ENC: Marcin Konik
!!!END: 2015-0m-dd
!!!EED: Marcin Konik
!!!EEV: 
!!!ONB: Encoded in vim by Marcin Konik
!!!CharacterEncoding: utf-8
!!!RDF**kern: l=long note in original notation
!!!RDF**kern: i=editorial accidental
!!muse2ps: z14jc180F
!!!COM: Anonim
!!!CDT: [?]
!!!TXO: Polish
!!!ODT: 
!!!GTL: Hymnbook D
!!!ARL: Opactwo św. Wojciecha, Staniątki 
!!!voices:	1
